X: 2190
T: PERTH ASSEMBLY
R: Reel
B: Kerr's v.2 p.22 #190
Z: 2016 John Chambers <jc:trillian.mit.edu>
M: C
L: 1/8
K: F
F |\
A2cA B2dB | A2cA (BG)GB |\
A2cA (Bc)de | fcdB AFF :|\
f |\
f2af e2ge | f2df e2ce |
d2Bd c2Ac | BGcB AFFf |\
agfa gfeg | fedf edce |\
dcBd cBAc | dfeg aff |]
